static/assets/images/protocols/toros-finance-mono.svg

<svg width="279" height="340" viewBox="0 0 279 340" fill="none" xmlns="http://www.w3.org/2000/svg">
<path d="M56.1035 0.0456778C58.6132 0.0456778 58.2619 -0.228389 58.3121 2.12402C56.8314 60.4775 131.821 105.265 185.578 66.7582C196.524 59.0529 205.382 49.1665 211.473 37.8589C217.564 26.5512 220.725 14.1233 220.714 1.53021C220.714 0.4111 220.965 0 222.32 0H277.382C278.612 0 278.888 0.342584 278.888 1.41601C279.942 95.0556 169.893 165.993 76.0807 119.242C29.501 96.4259 0.0121936 49.7203 0.162775 1.62156C0.162775 0.411101 0.4639 0.0456778 1.84423 0.0456778H56.1035Z" fill="black"/>
<path d="M278.964 206.51C280.745 275.62 217.05 341.259 139.35 339.98C59.5669 341.35 -4.85669 271.623 0.288163 200.914C1.1697 174.475 10.6073 148.86 27.4179 127.281C28.1457 126.185 28.6727 126.139 29.7268 127.053C42.8299 138.804 58.1265 148.34 74.9011 155.213C76.156 155.693 76.2563 156.036 75.4783 156.995C62.9687 172.907 56.951 192.292 58.4626 211.808C59.1151 262.625 121.205 304.831 173.406 279.959C221.09 258.491 235.395 197.26 204.827 158.502C201.891 155.83 202.468 155.145 206.208 154.14C217.275 149.388 227.666 143.429 237.152 136.394C241.45 133.317 245.54 130.007 249.399 126.482C250.378 125.546 250.855 125.774 251.558 126.687C269.731 149.991 279.325 177.935 278.964 206.51Z" fill="black"/>
</svg>

<svg xmlns="http://www.w3.org/2000/svg" fill="none" viewBox="0 0 279 340"><path fill="#000" d="M56.104.046c2.51 0 2.158-.274 2.208 2.078-1.48 58.354 73.509 103.141 127.266 64.634 10.946-7.705 19.804-17.591 25.895-28.9 6.091-11.307 9.252-23.735 9.241-36.328 0-1.119.251-1.53 1.606-1.53h55.062c1.23 0 1.506.343 1.506 1.416 1.054 93.64-108.995 164.577-202.807 117.826C29.5 96.426.012 49.72.163 1.622c0-1.21.3-1.576 1.681-1.576z"/><path fill="#000" d="M278.964 206.51c1.781 69.11-61.914 134.749-139.614 133.47C59.567 341.35-4.857 271.623.288 200.914c.882-26.439 10.32-52.054 27.13-73.633.728-1.096 1.255-1.142 2.309-.228 13.103 11.751 28.4 21.287 45.174 28.16 1.255.48 1.355.823.577 1.782-12.51 15.912-18.527 35.297-17.015 54.813.652 50.817 62.742 93.023 114.943 68.151 47.684-21.468 61.989-82.699 31.421-121.457-2.936-2.672-2.359-3.357 1.381-4.362 11.067-4.752 21.458-10.711 30.944-17.746a133 133 0 0 0 12.247-9.912c.979-.936 1.456-.708 2.159.205 18.173 23.304 27.767 51.248 27.406 79.823"/></svg>
